X: 4488
T: Bonny Braes Of Elcho, The
R: reel
M: 4/4
K: Dmajor
|:A|f>g fa gfed|f>g fa B3A|f>g fa gfed|c/d/e/f/ gc d3:|
|:e/f/|gAgA fAfd|c/d/e/f/ gf f2 ee/f/|gAgA f/A/f/A/fd|c/d/e/f/ gc d3:|

